X:7787
T:Untitled Polka
O:england
M:4/4
L:1/8
K:D
|:A2f2f^e f2|A2f2f^e f2|A2f2e2d2|c2B2B2A2|
B2g2gf g2|[1B2g2gf g2|A2B2c2d2|e2c2B2A2:|[2f2e2e4|
d2c2B2c2|d8|:A4d2e2|f6g2|a2f2d2e2|
f6f2|g2g2e3g|f2f2d3f|[1e2B2c2d2|e2c2B2A2:|
[2e2B2c2A2|d8
